X:2
T:Surrender Of Calais. Tho24CDs1792.02, The
M:6/8
L:1/8
Q:3/8=120
C:"74"
B:Thompson 24 CDs 1792
Z:Village Music Project, Chris Partington, 1999 & 2017
W:Cast off 2 Cu: up again .|right hands across half round and back
W:again:|Cross over one Cu: turn your partner:|.right and left:|
K:D
|:AFD AFD|B2AA2d|c2de2f|g2f ecA|
AFD AFD|B2AA2d|c2de2f|gecd3:|
|:e2c  Ace|f2d Adf|g2ef2d|cdeA2F|
G2Be2d|c2ea2g|fga gfe|d3D3:|

